X:1
T:Title
%%score { 1 | 2 }
L:1/8
Q:1/4=100
M:4/4
K:Bb
V:1 treble nm="Grand Piano"
V:2 bass 
V:1
 G3 A B2 G2 | A2 ^F2 G4 | B3 c d2 B2 | c2 A2 [DB]4 | [Fd]3 [Fd] c2 A2 | B2 G2 A4 | %6
w: George~F.~Root * * *||||||
 d3 [Dc] [DB]2 [CEA]2 | [B,DG]2 [A,D^F]2 [B,DG]4 | [DF]4 [DF]2 [DF]2 | [DF]2 [Fd]2 [Ec]2 [DB]2 | %10
w: ||||
 G4 B4 | F6 z2 | B4 B2 B2 | [DBd]2 [EAc]2 [DGB]2 [CEA]2 | [B,DG]4 [A,C^F]4 | [G,B,G]6 z2 |] %16
w: ||||||
V:2
 [G,B,D]3 [G,CD] [G,D]2 [G,B,D]2 | [D,CD]2 [D,A,D]2 [G,B,D]4 | [G,B,D]3 [G,B,E] [F,B,F]2 [F,B,D]2 | %3
 [F,A,E]2 [F,C]2 [B,,B,]4 | [B,,B,]3 [B,,B,] [F,A,E]2 [F,CE]2 | [G,B,D]2 [G,B,]2 [D,^F,D]4 | %6
 [G,,B,D]3 [A,,^F,] [B,,G,]2 C,2 | D,2 D,2 G,,4 | [B,,B,]4 [B,,B,]2 [B,,B,]2 | %9
 [B,,B,]2 [B,,B,]2 [B,,B,]2 [B,,B,]2 | [E,B,E]4 [G,B,E]4 | [B,D]6 z2 | [G,DG]4 [G,DG]2 [G,DG]2 | %13
 G,,2 A,,2 B,,2 C,2 | D,4 D,4 | G,,6 z2 |] %16

